X: 42
T: Aures ad nostras
N: Derived from Mar2004-Aures_ad_nostras.krn
C: Johannes Martini
%%abc-version 2.0
%%abcx-abcm2ps-target-version 5.9.1 (29 Sep 2008)
%%abc-creator hum2abc beta
%%abcx-conversion-date 2019/02/17 07:19:41
%%abc-edited-by Jesse Rodin
%%abc-edited-by Chris Gage 08-15-2014
%%abcx-initial-encoding-date 2014/10/05/
%%humdrum-veritas 2179403930
%%humdrum-veritas-data 3554390441
%%linebreak <none>
%%barnumbers 0
L: 1/4
M: 4/2
Q: 1/2=120
V: 1 clef=treble
V: 2 clef=treble-8
V: 3 clef=treble-8
K: C
[V:1] c4c4 | 
[V:2] c4e2f2 | 
[V:3] c4c2A2 | 
[V:1] _B4A2B2 | 
[V:2] g4f2d2 | 
[V:3] G4D2G2 | 
[V:1] A2c4_Bc | 
[V:2] c4A2d2- | 
[V:3] A2F4G2 | 
[V:1] G4F3G | 
[V:2] d2^c2d3B | 
[V:3] E4D4 | 
[V:1] A2_B4AG | 
[V:2] c2d4cB | 
[V:3] A2G2D2F2- | 
[V:1] F2G4^F2 | 
[V:2] A2G2A4 | 
[V:3] F2E2D4 | 
[V:1] G4z2c2 | 
[V:2] G2c2B2c2 | 
[V:3] E2C2G2A2 | 
[V:1] B2c2d4 | 
[V:2] d2e2f3d | 
[V:3] G2E2D4 | 
[V:1] c2d2e2dc | 
[V:2] e2d2c4 | 
[V:3] A2B2A4 | 
[V:1] B2d3cBA | 
[V:2] d3cBAG2 | 
[V:3] G2D4E2- | 
[V:1] G2c4B2 | 
[V:2] c2e2d4 | 
[V:3] E2C2G4 | 
[V:1] c3de4 | 
[V:2] z4c3d | 
[V:3] A8 | 
[V:1] c2d4cB | 
[V:2] e2f2d2g2- | 
[V:3] A2F2G4 | 
[V:1] A4G3A | 
[V:2] g2^f2g2e2 | 
[V:3] D4E3F | 
[V:1] B2c4B2 | 
[V:2] d2c2d4 | 
[V:3] G2A2G4 | 
[V:1] c4z2c2- | 
[V:2] z2c2d2e2 | 
[V:3] C4G2C2 | 
[V:1] c2c2B2c2 | 
[V:2] f4g2e2 | 
[V:3] F2A2G2c2 | 
[V:1] A4G4 | 
[V:2] f4g4 | 
[V:3] d4G4 | 
[V:1] A3Bc2d2- | 
[V:2] c3de2f2 | 
[V:3] A6F2 | 
[V:1] d2cBA4 | 
[V:2] d4c2A2 | 
[V:3] G4z2F2 | 
[V:1] G2A3GFE | 
[V:2] B2c2d4 | 
[V:3] G2F2D4 | 
[V:1] D2G4^F2 | 
[V:2] B2c2A4 | 
[V:3] G2C2D4 | 
[V:1] G8 ||  
[V:2] G8 ||  
[V:3] G8 ||  
[V:1] [M:2/1]c8 | 
[V:2] [M:2/1]c8 | 
[V:3] [M:2/1]c4A4 | 
[V:1] B4A4- | 
[V:2] d4c4 | 
[V:3] G4A2c2- | 
[V:1] A4c4 | 
[V:2] A8 | 
[V:3] c2d2e2f2 | 
[V:1] B4G4 | 
[V:2] G8 | 
[V:3] g4e4 | 
[V:1] A8 | 
[V:2] d8 | 
[V:3] f6e2 | 
[V:1] z4G4 | 
[V:2] e8 | 
[V:3] c8 | 
[V:1] A4G2A2 | 
[V:2] f4e2c2- | 
[V:3] F4c4 | 
[V:1] c2B2G3A | 
[V:2] c2G2B2c2 | 
[V:3] e2d3eg2- | 
[V:1] B2G4^F2 | 
[V:2] d2B2A4 | 
[V:3] gfedc3B | 
[V:1] G8 | 
[V:2] G4z4 | 
[V:3] d2g3fe2- | 
[V:1] z8 | 
[V:2] c4d4 | 
[V:3] e2dcB2G2 | 
[V:1] c4d4 | 
[V:2] c4B4 | 
[V:3] A2c2G4 | 
[V:1] c4B4 | 
[V:2] c2e4d2 | 
[V:3] A4G4 | 
[V:1] c2d2e2d2- | 
[V:2] e2f2g4 | 
[V:3] c2B2G2B2 | 
[V:1] dcc4B2 | 
[V:2] c2e2d4 | 
[V:3] A2c2G4 | 
[V:1] c8 | 
[V:2] c8- | 
[V:3] g4z4 | 
[V:1] z4e4 | 
[V:2] c8 | 
[V:3] a4g4 | 
[V:1] d4c4- | 
[V:2] z8 | 
[V:3] f6ed | 
[V:1] c2BAB4 | 
[V:2] e4d4 | 
[V:3] c4G4 | 
[V:1] A4c4 | 
[V:2] c6BA | 
[V:3] A2F3GA2 | 
[V:1] d4c2e2- | 
[V:2] B4A4 | 
[V:3] G2d2e2c2- | 
[V:1] e2dcB3A | 
[V:2] c4d4 | 
[V:3] c2dBG4 | 
[V:1] c4z4 | 
[V:2] c2e4dc | 
[V:3] z2g4fe | 
[V:1] z4e4- | 
[V:2] B3Ac4 | 
[V:3] d2cBABcd | 
[V:1] e2d2c4 | 
[V:2] A8 | 
[V:3] [M:2/1](3e2f2g2(3a2e2f2 | 
[V:1] B4G2A2- | 
[V:2] G4c4 | 
[V:3] [M:2/1]g4e4 | 
[V:1] A2c2B2A2- | 
[V:2] e4d4 | 
[V:3] c4G2d2- | 
[V:1] AGG4^F2 | 
[V:2] B2G2A4 | 
[V:3] d2e2c3d | 
[V:1] G8 | 
[V:2] G2c4B2 | 
[V:3] e4d4 | 
[V:1] z2c4B2 | 
[V:2] c2e2d4 | 
[V:3] c4G4 | 
[V:1] c4d4 | 
[V:2] c4f4 | 
[V:3] A2c2B2d2 | 
[V:1] c3BA4 | 
[V:2] e2c4d2- | 
[V:3] A4F4 | 
[V:1] B4c4 | 
[V:2] d2e4dc | 
[V:3] G4A4 | 
[V:1] d4c2B2- | 
[V:2] B3GA2G2 | 
[V:3] G3EF2G2- | 
[V:1] BAG4^F2 | 
[V:2] B2c2A4 | 
[V:3] G2C2D4 | 
[V:1] G8 |]  
[V:2] G8 |]  
[V:3] d8 |]  



